Sources/FrostedUI/Resources/Icons.xcassets/leaveReview24.imageset/leave-review-24.svg

<svg width="24" height="24" viewBox="0 0 24 24" fill="none" xmlns="http://www.w3.org/2000/svg" data-fui-icon="true">
  <path
    d="M10.9717 1.25037C11.3858 1.2505 11.7217 1.58623 11.7217 2.00037C11.7215 2.41433 11.3857 2.75023 10.9717 2.75037H7.97168C5.07219 2.75037 2.72168 5.10087 2.72168 8.00037V16.0004C2.72187 18.8997 5.0723 21.2504 7.97168 21.2504H15.9717C18.8709 21.2502 21.2215 18.8996 21.2217 16.0004V13.0004C21.2217 12.5862 21.5575 12.2504 21.9717 12.2504C22.3858 12.2505 22.7217 12.5862 22.7217 13.0004V16.0004C22.7215 19.728 19.6994 22.7502 15.9717 22.7504H7.97168C4.24388 22.7504 1.22187 19.7281 1.22168 16.0004V8.00037C1.22168 4.27244 4.24376 1.25037 7.97168 1.25037H10.9717ZM17.7256 1.88416C18.7995 0.810225 20.5403 0.810246 21.6143 1.88416L22.3213 2.59119C23.3952 3.66513 23.3952 5.40592 22.3213 6.47986L14.1162 14.6859C13.6006 15.2015 12.9011 15.4905 12.1719 15.4906H10.2646C9.40891 15.4905 8.7152 14.7975 8.71484 13.9418V12.0336C8.71497 11.3044 9.00397 10.6048 9.51953 10.0892L17.7256 1.88416ZM10.5801 11.1498C10.3458 11.3841 10.215 11.7023 10.2148 12.0336V13.9418C10.2152 13.969 10.2373 13.9905 10.2646 13.9906H12.1719C12.5032 13.9905 12.8213 13.8597 13.0557 13.6254L18.9736 7.7074L16.498 5.23181L10.5801 11.1498ZM20.5537 2.9447C20.0656 2.45658 19.2743 2.45656 18.7861 2.9447L17.5586 4.17126L20.0342 6.64685L21.2607 5.41931C21.7489 4.93116 21.7489 4.13989 21.2607 3.65173L20.5537 2.9447Z"
    fill="currentColor"
  />
</svg>

<svg xmlns="http://www.w3.org/2000/svg" width="24" height="24" fill="none" data-fui-icon="true" viewBox="0 0 24 24"><path fill="currentColor" d="M10.972 1.25a.75.75 0 0 1 0 1.5h-3A5.25 5.25 0 0 0 2.722 8v8c0 2.9 2.35 5.25 5.25 5.25h8c2.899 0 5.25-2.35 5.25-5.25v-3a.75.75 0 0 1 1.5 0v3a6.75 6.75 0 0 1-6.75 6.75h-8A6.75 6.75 0 0 1 1.222 16V8a6.75 6.75 0 0 1 6.75-6.75zm6.754.634a2.75 2.75 0 0 1 3.888 0l.707.707a2.75 2.75 0 0 1 0 3.889l-8.205 8.206a2.75 2.75 0 0 1-1.944.805h-1.907a1.55 1.55 0 0 1-1.55-1.55v-1.907c0-.73.289-1.43.805-1.945zM10.58 11.15a1.25 1.25 0 0 0-.365.884v1.908a.05.05 0 0 0 .05.049h1.907c.331 0 .65-.131.884-.366l5.918-5.918-2.476-2.475zm9.974-8.205a1.25 1.25 0 0 0-1.768 0L17.56 4.17l2.475 2.476 1.227-1.228a1.25 1.25 0 0 0 0-1.767z"/></svg>
